X:1
T:They Were in an Upper Chamber
T:Charles Davis (Charlie) Tillman, 1895
T:They Were in an Upper Chamber
T:Public Domain
T:Public Domain
C:Charles Davis (Charlie) Tillman, 1895
Z:Public Domain
%%score ( 1 2 ) 3
L:1/8
M:4/4
K:F
V:1 treble 
V:2 treble 
V:3 bass 
V:1
 [Fc][Fc] | [Fd]2 [Fc]2 [FA]2 [FG]2 | F2 [FA]4 [Fc][Fc] | [Ec]2 [EB]2 [EG]2 [EA]2 | F6 [Fc][Fc] | %5
w: 1.~They were|in an up- per|cham- ber, They were|with one ac- cord,|When the Ho-|
w: 2.~Yes, the|power from Heav’n de-|scend- ed With the|of rush- ing wind;|Tongues of fire|
w: 3.~Yes, this|“old time” power was|giv- en To our|thers who were true;|This is prom-|
 [Fd]2 [Fc]2 [FA]2 [FG]2 | F2 [FA]4 [Fc][Fc] | [Ec]2 [EB]2 [EG]2 [EA]2 | F6 || %9
w: Ghost de- scend- ed|As was prom- ised|the Lord. * *||
w: down up- on them,|As the Lord said|would send. * *||
w: to be- liev- ers,|And we all may|it too. * *||
"^Refrain" [Fc]4 [Fd]2 [Fc][FA] | F2 [DF]2 [CF]4 | [EG]4 [EG]2 F[EG] | [FA]2 [Ac]2 [Ac]4 | %13
w: ||||
w: ||||
w: ||||
 [Fc]4 [Fd]2 [Fc][FA] | F2 [DF]2 [CF]2 [FG]2 | [FA] [FA]3 [EG] [EG]3 | F6 z2 |] %17
w: ||||
w: ||||
w: ||||
V:2
 x2 | x8 | F2 x6 | x8 | F6 x2 | x8 | F2 x6 | x8 | F6 || x8 | F2 x6 | x6 F x | x8 | x8 | F2 x6 | %15
w: ||all||ly||by|||||||||
w: ||sound||came||He|||||||||
w: ||fa-||ised||have|||||||||
 x8 | F6 x2 |] %17
w: ||
w: ||
w: ||
V:3
 [F,A,][F,A,] | [F,B,]2 [F,A,]2 [F,C]2 [F,B,]2 | [F,A,]2 [F,C]4 [F,A,][F,A,] | %3
w: ~ ~|~ ~ ~ ~|~ ~ ~ ~|
 [C,G,]2 [C,G,]2 [C,B,]2 [C,C]2 | [F,A,]6 [F,A,][F,A,] | [F,B,]2 [F,A,]2 [F,C]2 [F,B,]2 | %6
w: ~ ~ ~ ~|~ ~ ~|~ ~ ~ ~|
 [F,A,]2 [F,C]4 [F,A,][F,A,] | [C,G,]2 [C,G,]2 [C,B,]2 [C,C]2 | [F,A,]6 || %9
w: ~ ~ ~ ~|~ ~ ~ ~|~|
 [F,A,]4 [F,B,]2 [F,A,][F,C] | [F,A,]2 [F,B,]2 [F,A,]4 | [C,C]4 [C,C]2 [C,A,][C,B,] | %12
w: O Lord, send the|power just now,|O Lord, send the|
 [F,C]2 [F,F]2 [F,F]4 | [F,A,]4 [F,B,]2 [F,A,][F,C] | [F,A,]2 [F,B,]2 [F,A,]2 [D,=B,]2 | %15
w: power just now;|O Lord, send the|power just now And|
 [C,C] [C,C]3 [C,B,] [C,B,]3 | [F,A,]6 z2 |] %17
w: bap- tize ev- ery|one.|

